dist/img/svg/partners__slide__15.svg

<svg width="158" height="53" viewBox="0 0 158 53" fill="none" xmlns="http://www.w3.org/2000/svg">
<g opacity="0.7">
<g clip-path="url(#clip0_471_43)">
<path fill-rule="evenodd" clip-rule="evenodd" d="M81.4754 16.5764C82.3827 13.1828 85.5427 10.8679 89.0799 11.0058C93.7537 11.0058 97 14.305 97 19.0066C97 23.7083 93.7359 26.9942 89.0621 26.9942C85.5249 27.1321 82.3649 24.8172 81.4577 21.4236V21.3486H79.6077V26.6413H74V11.3366H79.6255V16.6514H81.4754V16.5764ZM86.8341 18.989C86.8341 21.1854 87.9636 22.1822 89.0131 22.1822C90.0626 22.1822 91.1922 21.181 91.1922 18.989C91.1922 16.7969 90.0626 15.7957 89.0131 15.7957C87.9636 15.7957 86.8341 16.7925 86.8341 18.989Z" fill="black"/>
<path fill-rule="evenodd" clip-rule="evenodd" d="M150.051 11C154.72 11 157.978 14.2871 158 18.9968H157.973C157.973 23.7065 154.716 26.9936 150.051 26.9936C146.517 27.1386 143.356 24.8206 142.448 21.4179V21.3384H140.597V26.6622H135V11.3314H140.597V16.6552H142.457V16.5801C142.474 16.5063 143.749 11 150.051 11ZM150.006 15.7981C148.959 15.7981 147.831 16.7877 147.831 18.9968C147.831 21.197 148.959 22.1955 150.006 22.1955C151.054 22.1955 152.181 21.1926 152.181 18.9968C152.181 16.801 151.054 15.7981 150.006 15.7981Z" fill="black"/>
<path fill-rule="evenodd" clip-rule="evenodd" d="M105.699 16.4528C105.854 16.4391 106.883 16.348 108.109 16.348C111.636 16.348 114 18.2869 114 21.1761C114 24.1974 111.384 26 107 26C104.861 26 102.466 25.9318 100 25.7955V11H112.007V14.8778H105.573V16.4545H105.679C105.679 16.4545 105.686 16.4539 105.699 16.4528ZM105.573 22.446H107.133C107.925 22.4956 108.616 21.9299 108.693 21.1676C108.616 20.4054 107.925 19.8396 107.133 19.8892H105.573V22.446Z" fill="black"/>
<path fill-rule="evenodd" clip-rule="evenodd" d="M62.7718 30C67.4355 30 70 31.8281 70 35.1435V35.1349C70 38.2628 67.6134 40.2827 63.9172 40.2827C63.0182 40.2827 61.8637 40.1761 61.8637 40.1761H61.7542V45H56V30.2045C56.5522 30.1705 59.4954 30 62.7718 30ZM61.7542 36.571H62.8951C63.4749 36.6224 64.0358 36.3625 64.3428 35.9002C64.6497 35.438 64.6497 34.8532 64.3428 34.391C64.0358 33.9287 63.4749 33.6688 62.8951 33.7202H61.7542V36.571Z" fill="black"/>
<path d="M93.7772 34.6383V30H81.45V34.5821H86.7248L81 40.3573V45H94V40.4135H88.0569L93.7772 34.6383Z" fill="black"/>
<path d="M109.777 34.6383V30H97.4457V34.5821H102.722L97 40.3573V45H110V40.4135H104.055L109.777 34.6383Z" fill="black"/>
<path d="M56.8194 15.5618H58.1512V15.6655C57.7987 21.3824 56.7715 22.551 55.3395 22.551H55V26.6842C55.6813 26.878 56.383 26.9841 57.0892 27C59.9358 27 63.3308 25.0327 63.3308 15.661V15.5618H65.5071V26.6571H71V11H56.8194V15.5618Z" fill="black"/>
<path d="M116.824 15.5618H118.161V15.6655C117.808 21.3824 116.781 22.551 115.353 22.551H115V26.6842C115.682 26.8776 116.383 26.9837 117.09 27C119.937 27 123.333 25.0327 123.333 15.661V15.5618H125.51V26.6571H131V11H116.824V15.5618Z" fill="black"/>
<path d="M71 34.366H72.6177V45H78V30H71V34.366Z" fill="black"/>
<path fill-rule="evenodd" clip-rule="evenodd" d="M113.615 34.366V30H123.614L128 45H121.921L121.49 42.8386H118.515L118.083 45H112L115.113 34.366H113.615ZM120 34.1801L118.994 39.3674H121.006L120 34.1801Z" fill="black"/>
</g>
<path d="M0 44C0 45.6569 1.34315 47 3 47H37C38.6569 47 40 45.6569 40 44V10C40 8.34315 38.6569 7 37 7H3C1.34315 7 0 8.34315 0 10V44Z" fill="black"/>
<path d="M19.8174 39.3116C19.8174 39.3116 6.39551 29.4432 6.39551 22.4416C6.39622 19.1213 8.66212 16.23 11.8859 15.4356C15.1097 14.6412 18.4596 16.1488 20.0028 19.0886C21.5429 16.1454 24.8939 14.6348 28.1191 15.4298C31.3443 16.2248 33.6094 19.1198 33.6051 22.4416C33.6051 29.4582 19.8174 39.3116 19.8174 39.3116Z" fill="white"/>
</g>
<defs>
<clipPath id="clip0_471_43">
<rect width="103" height="45.05" fill="white" transform="translate(55 5.30005)"/>
</clipPath>
</defs>
</svg>

<svg width="158" height="53" viewBox="0 0 158 53" fill="none" xmlns="http://www.w3.org/2000/svg"><g opacity=".7"><g clip-path="url(#clip0_471_43)" fill="#000"><path fill-rule="evenodd" clip-rule="evenodd" d="M81.475 16.576c.908-3.393 4.068-5.708 7.605-5.57 4.674 0 7.92 3.299 7.92 8 0 4.702-3.264 7.988-7.938 7.988-3.537.138-6.697-2.177-7.604-5.57v-.075h-1.85v5.292H74V11.337h5.626v5.314h1.85v-.075zm5.36 2.413c0 2.196 1.129 3.193 2.178 3.193 1.05 0 2.18-1.001 2.18-3.193s-1.13-3.193-2.18-3.193c-1.05 0-2.179.997-2.179 3.193zM150.051 11c4.669 0 7.927 3.287 7.949 7.997h-.027c0 4.71-3.257 7.997-7.922 7.997-3.534.145-6.695-2.173-7.603-5.576v-.08h-1.851v5.324H135v-15.33h5.597v5.323h1.86v-.075c.017-.074 1.292-5.58 7.594-5.58zm-.045 4.798c-1.047 0-2.175.99-2.175 3.199 0 2.2 1.128 3.198 2.175 3.198 1.048 0 2.175-1.002 2.175-3.198 0-2.196-1.127-3.199-2.175-3.199zm-44.307.655a28.482 28.482 0 012.41-.105c3.527 0 5.891 1.939 5.891 4.828 0 3.021-2.616 4.824-7 4.824-2.139 0-4.534-.068-7-.204V11h12.007v3.878h-6.434v1.576h.106l.02-.001zm-.126 5.993h1.56c.792.05 1.483-.516 1.56-1.278-.077-.763-.768-1.328-1.56-1.279h-1.56v2.557zM62.772 30C67.436 30 70 31.828 70 35.144v-.01c0 3.129-2.387 5.149-6.083 5.149-.899 0-2.053-.107-2.053-.107h-.11V45H56V30.204c.552-.034 3.495-.204 6.772-.204zm-1.018 6.571h1.141c.58.051 1.14-.209 1.448-.67a1.352 1.352 0 000-1.51c-.307-.462-.868-.722-1.448-.67h-1.14v2.85z"/><path d="M93.777 34.638V30H81.45v4.582h5.275L81 40.357V45h13v-4.587h-5.943l5.72-5.775zm16 0V30H97.446v4.582h5.276L97 40.357V45h13v-4.587h-5.945l5.722-5.775zM56.82 15.562h1.331v.104c-.352 5.716-1.38 6.885-2.812 6.885H55v4.133c.681.194 1.383.3 2.09.316 2.846 0 6.24-1.967 6.24-11.339v-.1h2.177v11.096H71V11H56.82v4.562zm60.004 0h1.337v.104c-.353 5.716-1.38 6.885-2.808 6.885H115v4.133a8.36 8.36 0 002.09.316c2.847 0 6.243-1.967 6.243-11.339v-.1h2.177v11.096H131V11h-14.176v4.562zM71 34.366h1.618V45H78V30h-7v4.366z"/><path fill-rule="evenodd" clip-rule="evenodd" d="M113.615 34.366V30h9.999L128 45h-6.079l-.431-2.161h-2.975L118.083 45H112l3.113-10.634h-1.498zM120 34.18l-1.006 5.187h2.012L120 34.18z"/></g><path d="M0 44a3 3 0 003 3h34a3 3 0 003-3V10a3 3 0 00-3-3H3a3 3 0 00-3 3v34z" fill="#000"/><path d="M19.817 39.312S6.396 29.443 6.396 22.442a7.217 7.217 0 0113.607-3.353 7.212 7.212 0 0113.602 3.353c0 7.016-13.788 16.87-13.788 16.87z" fill="#fff"/></g><defs><clipPath id="clip0_471_43"><path fill="#fff" transform="translate(55 5.3)" d="M0 0h103v45.05H0z"/></clipPath></defs></svg>
